X:1
T: Vindarna sucka uti skogarna
C:swedish trad
Q:&quot;Adagio, very freely&quot;
L:1/8
M:3/4
K:Gmin
d2B2B2 | c>B cd (3cA^F | d2B2B2 | c>B cd (3cA^F |
(3D=E^F GB AF | (3D=E^F GB AF | (3D=E^F GB AG | (3^FGA G2z2 |]
